X:1883
T:Polska efter Wilhelm Bergewing
R:Polska
S:Efter Wilhelm Bergewing
O:Karlskoga, Värmland
Z:ABC-transkribering av Per Saxholm
M:3/4
L:1/8
K:G
GB Bd dg|g2bg dB|ce af df|(3afa gb dB|GB Bd dg|g2 bg dB|ce af df|(3afa[Bg]4:|B2 dB GB|(3dBd cA G2|DF Ac (3BGB|(3dBd cA G2|B2 dB GB|(3dBd cA G2|f2 af df|(3afa [Bg]4:| 
(:musicend:)
(:music:)
